X:1
T:Jesus Calls Us; O'er the Tumult
T:Text: Cecil F. Alexander, 1852 Tune: William Boyce, c. 1765
T:87 87 HALTON HOLGATE www.hymnary.org/text/jesus_calls_us_oer_the_tumult
T:Jesus Calls Us; O'er the Tumult
T:This hymn is in the public domain.  You may freely use this score for personal and congregational worship.  If you reproduce the score, please credit Hymnary.org as the source. 
T:This hymn is in the public domain.  You may freely use this score for personal and congregational worship.  If you reproduce the score, please credit Hymnary.org as the source. 
Z:This hymn is in the public domain.  You may freely use this score for personal and congregational worship.  If you reproduce the score, please credit Hymnary.org as the source.
%%score ( 1 2 ) ( 3 4 )
L:1/8
M:4/4
K:D
V:1 treble nm="SOPRANO ALTO" snm="S. A."
V:2 treble 
V:3 bass nm="TENOR BASS" snm="T. B."
V:4 bass 
V:1
"^1""^2""^3""^4" F2 D2 A2 D2 | EF G2 G2 F2 | B2 A2 | c2 d2 | G2 F2 (F2 E2) | GF ED A2 c2 |1 %6
w: Je- sus calls us;|o'er * the tu- mult|of our|life's wild,|rest- less sea, *|day * by * day his|
w: Long a- go a-|pos- * tles heard it|by the|Gal- i-|le- an lake, *|turned * from * home and|
w: In our joys and|in * our sor- rows,|days of|work and|hours of ease, *|still * he * calls, in|
w: Je- sus calls us;|by * your mer- cies,|Sav- ior,|may we|hear your call, *|give * our * hearts to|
 Bc d2 d2 c2 | d2 B2 G2 F2 | GF E2 D4 |] %9
w: voice * is sound- ing,|say- ing, "Chris- tian,|fol- * low me."|
w: work * and fam- ily,|leav- ing all for|his * dear sake.|
w: cares * and plea- sures,|"Chris- tian, love me|more * than these."|
w: your * o- be- dience,|serve and love you|best * of all.|
V:2
 D2 D2 C2 D2 | D2 C2 C2 D2 | D2 D2 | AG F2 | E2 D2 (D2 C2) | A,2 A,2 A,2 E2 |1 F2 E2 E2 E2 | %7
 D2 D2 DC D2 | D2 DC A,4 |] %9
V:3
 A,2 F,2 E,2 D,2 | B,2 A,2 A,2 A,2 | G,2 A,2 | A,2 A,2 | A,2 A,2 A,4 | A,2 G,F, E,2 A,2 |1 %6
 A,2 ^G,2 A,2 A,2 | A,2 G,2 A,2 A,2 | B,A, G,2 F,4 |] %9
V:4
 D,2 D,2 A,,2 B,,2 | G,,2 A,,2 D,2 D,2 | G,2 F,2 | E,2 D,2 | C,2 D,2 A,,4 | D,2 D,2 C,2 A,,2 |1 %6
 D,2 E,2 A,2 A,=G, | F,2 G,2 E,2 D,2 | G,,2 A,,2 D,4 |] %9

